dist/img/svg/partners__slide__5.svg

<svg width="93" height="53" viewBox="0 0 93 53" fill="none" xmlns="http://www.w3.org/2000/svg">
<g opacity="0.65">
<path fill-rule="evenodd" clip-rule="evenodd" d="M27.3341 19.1958L34.751 26.4595L27.3341 33.7232H17.7782L25.2229 26.4595L17.7782 19.1958H27.3341Z" fill="black"/>
<path fill-rule="evenodd" clip-rule="evenodd" d="M31.7508 19.1958L39.1955 26.4595L31.7508 33.7232H27.9174L35.3621 26.4595L27.9174 19.1958H31.7508Z" fill="#636363"/>
<path fill-rule="evenodd" clip-rule="evenodd" d="M26.7787 18.7602L19.9173 12.0406C18.5006 10.6531 16.1394 10.6531 14.7227 12.0406L0 26.4592L14.8061 40.9594C16.2228 42.3469 18.584 42.3469 20.0007 40.9594L26.9454 34.1582H17.3617L17.3339 34.131L9.5281 26.4864L9.50033 26.4592L17.3339 18.7874H26.7787V18.7602Z" fill="black"/>
<path fill-rule="evenodd" clip-rule="evenodd" d="M53.217 35.1369C50.717 35.1369 48.6058 34.2936 46.9391 32.6341C45.2723 30.9746 44.439 28.907 44.439 26.4585C44.439 24.0373 45.2723 21.9697 46.9668 20.3102C48.6336 18.6235 50.7725 17.8074 53.3837 17.8074C54.856 17.8074 56.106 18.0522 57.1338 18.5147C58.1339 18.9772 59.1061 19.6573 60.0228 20.5279L57.7728 23.0579C57.0505 22.405 56.356 21.9153 55.7171 21.6433C55.0782 21.344 54.3004 21.208 53.3837 21.208C51.9392 21.208 50.7725 21.7249 49.828 22.7315C48.8836 23.738 48.4113 24.9895 48.4113 26.4857C48.4113 27.9548 48.8836 29.2062 49.828 30.2128C50.7725 31.2466 51.9392 31.7363 53.3837 31.7363C54.3004 31.7363 55.0782 31.5731 55.7449 31.2466C56.4116 30.9201 57.1338 30.4305 57.8839 29.7503L60.2728 32.2532C59.3561 33.2326 58.3283 33.9399 57.245 34.4024C56.1338 34.8921 54.8004 35.1369 53.217 35.1369ZM67.2453 34.8376V21.48H62.0229V18.0794H76.2178V21.48H70.9954V34.8376H67.2453ZM79.1068 34.8376V18.0794H86.1071C88.1349 18.0794 89.7183 18.6235 90.9128 19.6845C92.0795 20.7455 92.6628 22.1602 92.6628 23.9285C92.6628 25.8056 92.0239 27.2475 90.7183 28.2813C89.4127 29.3151 87.746 29.8319 85.7459 29.8319H82.8847V34.8649H79.1068V34.8376ZM82.8569 26.5401H85.8293C86.746 26.5401 87.496 26.2953 88.0238 25.8328C88.5516 25.3431 88.8294 24.7174 88.8294 23.9557C88.8294 23.1395 88.5516 22.5138 88.0238 22.0785C87.496 21.6433 86.746 21.4256 85.7737 21.4256H82.8569V26.5401Z" fill="black"/>
</g>
</svg>

<svg width="93" height="53" viewBox="0 0 93 53" fill="none" xmlns="http://www.w3.org/2000/svg"><g opacity=".65" fill-rule="evenodd" clip-rule="evenodd"><path d="M27.334 19.196l7.417 7.263-7.417 7.264h-9.556l7.445-7.264-7.445-7.263h9.556z" fill="#000"/><path d="M31.75 19.196l7.446 7.263-7.445 7.264h-3.834l7.445-7.264-7.445-7.263h3.834z" fill="#636363"/><path d="M26.779 18.76l-6.862-6.72c-1.416-1.387-3.778-1.387-5.194 0L0 26.46l14.806 14.5c1.417 1.387 3.778 1.387 5.195 0l6.944-6.802h-9.583l-.028-.027-7.806-7.645-.028-.027 7.834-7.672h9.445v-.027zm26.438 16.377c-2.5 0-4.611-.843-6.278-2.503-1.667-1.66-2.5-3.727-2.5-6.175 0-2.422.833-4.49 2.528-6.149 1.667-1.686 3.806-2.503 6.417-2.503 1.472 0 2.722.245 3.75.708 1 .462 1.972 1.142 2.889 2.013l-2.25 2.53c-.723-.653-1.417-1.143-2.056-1.415-.639-.299-1.417-.435-2.333-.435-1.445 0-2.611.517-3.556 1.524-.944 1.006-1.417 2.258-1.417 3.754 0 1.469.473 2.72 1.417 3.727.944 1.034 2.111 1.523 3.556 1.523.916 0 1.694-.163 2.36-.49.668-.326 1.39-.816 2.14-1.496l2.389 2.503a8.968 8.968 0 01-3.028 2.15c-1.111.49-2.445.734-4.028.734zm14.028-.3V21.48h-5.222v-3.4h14.195v3.4h-5.223v13.358h-3.75zm11.862 0V18.08h7c2.028 0 3.611.544 4.806 1.605 1.166 1.061 1.75 2.476 1.75 4.244 0 1.878-.64 3.32-1.945 4.353-1.305 1.034-2.972 1.55-4.972 1.55h-2.861v5.034h-3.778v-.027zm3.75-8.297h2.972c.917 0 1.667-.245 2.195-.707.528-.49.805-1.116.805-1.877 0-.816-.277-1.442-.805-1.878-.528-.435-1.278-.652-2.25-.652h-2.917v5.114z" fill="#000"/></g></svg>
